X:1
T:moment
T:shubert
T:moment
T:©
T:©
T:©
T:©
T:©
C:shubert
Z:©
%%score [ 1 2 3 4 ]
L:1/8
Q:1/4=80
M:2/4
K:Bb
V:1 tenor nm="Violoncelle I" snm="Vlc. I"
V:2 bass nm="Violoncelle II" snm="Vlc. II"
V:3 bass nm="Violoncelle III" snm="Vlc. III"
V:4 bass nm="Violoncelle IV" snm="Vlc. IV"
V:1
 z4 | z4 |:{B,} B,B,/C/ B,A, |{B,C} D2{B,C} D2 |{C} B,B,/C/ B,D |{D} G2{D} G2 |{_A} GG/A/ GG | %7
 Gc/ z/ G2 | D/C/B,/C/ D/E/D/_G/ | G2 G2 :: D2 D2 | D/E/F/E/ E>D |{D} CC D/C/B,/C/ | C2 D2 | %14
{F} B2{F} B2 | A/G/_G/=G/ G2 | G/F/ F2 F | F2 F2 :: ^F2 F2 |{G} BB/A/ GF/E/ | D2 ^F2 | %21
{G} BB/A/ GF/E/ | D2 D2 | D/E/F/E/ ED/C/ | B,B, B,/C/D/C/ | B,2 B,2 :|{B,} B,B,/C/ B,A, | %27
{B,C} D2{B,C} D2 |{C} B,B,/C/ B,D |{D} G2{D} G2 |{_A} GG/A/ GG | Gc/ z/ G2 | D/C/B,/C/ D/E/D/^F/ | %33
 G2 G2 |] %34
V:2
 z4 | z4 |: G, z G,^F, | B,2 B,2 | G, z G,A, | B,2 B,2 | B,B, _CC | C3/2 z/ B,2 | %8
 B,/A,/G,/A,/ B,C | B,2 B,2 :: z B, z B, | z A, z A, | z A, z A, | z B, z B, | D2 D2 | %15
 F/E/D/E/ C2 | E E2 E | D2 D2 :: C2 C2 | B, B,3 | C2 C2 | B, B,3 | B,2 _A,2 | G,G, G,F,/E,/ | %24
 D,D, D,/E,/F,/G,/ | D,2 D,2 :| G, z G,^F, | B,2 B,2 | G, z G,A, | B,2 B,2 | B,B, =B,B, | %31
 C3/2 z/ B,2 | B,/A,/G,/A,/ B,C | B,2 B,2 |] %34
V:3
 z G, z G, | z G, z G, |: z G, z D, | z G, z G, | z G, z ^F, | z G, z G, | E,G, D,G, | C,E, D,G, | %8
 D,G, D,A, | G,2 G,2 :: z F, z F, | z F, z F, | z F, z F, | z F, z F, | B,2 B,2 | B,2 B,2 | %16
 A,A,/B,/ CB,/A,/ | B,2 B,2 :: A,2 A,2 | G, G,3 | ^F,2 A,2 | G, G,3 | F,2 F,2 | E,E, E,G, | %24
 F,F, F,F, | z F, z F, :| z G, z D, | z G, z G, | z G, z ^F, | z G, z G, | E,G, D,F, | C,E, D,G, | %32
 D,G, D,A, | G,2 G,2 |] %34
V:4
 G,,D, G,,D, | G,,D, G,,D, |: G,,D, G,,D, | G,,D, G,,D, | G,,D, G,,D, | G,,D, G,,D, | E,,E, D,,D, | %7
 C,,C, G,,D, | D,,D, D,,D, | G,,D, G,,D, :: B,,D, B,,D, | B,,C, B,,C, | B,,E, B,,E, | B,,D, B,,D, | %14
 B,,F, B,,F, | E,,E, E,,E, | F,,C, F,,C, | B,,F, B,,F, :: D,,D, D,,D, | D,,D, D,,D, | D,,D, D,,D, | %21
 D,,D, D,,D, | B,,D, =B,,D, | C,C, C,,C,, | F,, z F,, z | B,, z B,, z :| G,,D, G,,D, | %27
 G,,D, G,,D, | G,,D, G,,D, | G,,D, G,,D, | E,,E, D,,D, | C,,C, G,,D, | D,,D, D,,D, | G,,D, G,,D, |] %34

